X: 4174
T: The GROOM IN HIS SHIRT
%R: reel
B: James Kerr "Merry Melodies" v.4 p.20 #174
Z: 2016 John Chambers <jc:trillian.mit.edu>
M: C|
L: 1/8
K: G
|:\
B2AF G2DG | G2(AG) FGAc |\
BGAF G2(ef) | gfed Bdgd ::\
g2(ga) bgeg | fefg afdf |\
[1 gfga b2(ag) | gfed Bdef :|\
[2 g2bg f2af | gfed Bdgd |]

%%sep 1 1 500
%%sep 1 1 500

